packages/core/src/svgs/networks/branded/mantle.svg

<svg width="24" height="24" viewBox="0 0 24 24" fill="none" xmlns="http://www.w3.org/2000/svg">
<path d="M13.0313 5.42499L13.5437 2.11874C13.0374 2.03749 12.5187 2 11.9999 2H11.9937V8.74998H11.9999C12.2875 8.74998 12.5624 8.78747 12.8375 8.85622L13.7124 5.56873C13.4874 5.50623 13.2624 5.46248 13.0313 5.42499ZM10.3749 9.18742L8.68747 6.29373C8.49997 6.40624 8.29998 6.53123 8.11872 6.66872L6.11249 3.91874C6.53123 3.60623 6.98123 3.33124 7.44372 3.09375L8.97498 6.07498C9.28744 5.91873 9.59996 5.78123 9.93129 5.67499L8.89372 2.48749C9.39186 2.32694 9.90169 2.20574 10.4187 2.12499L10.9562 5.48748C10.7312 5.51873 10.5062 5.56873 10.2811 5.63124L11.1561 8.86247C10.8812 8.93122 10.6188 9.04373 10.3749 9.18742ZM3.08125 7.46873L6.11873 9.01248C5.96248 9.32494 5.82499 9.63746 5.71874 9.96879L2.48125 8.91872C2.64375 8.41873 2.84374 7.93748 3.08125 7.46873ZM17.7062 8.68747L14.8125 10.3749C14.9563 10.6188 15.0624 10.875 15.1374 11.15L18.3687 10.275C18.4312 10.4999 18.4812 10.7249 18.5124 10.95L21.8749 10.4187C21.7936 9.89996 21.6686 9.3875 21.5062 8.88747L18.3187 9.93116C18.2187 9.59998 18.0812 9.28119 17.925 8.96873L20.9 7.43748C20.6624 6.97499 20.3875 6.52497 20.0813 6.10623L17.3311 8.11248C17.4687 8.29998 17.5936 8.48748 17.7062 8.68747ZM15.075 2.48125C15.5749 2.64375 16.0624 2.84374 16.525 3.08123L14.9812 6.11249C14.6749 5.95623 14.3562 5.82498 14.0312 5.71874L15.075 2.48125ZM15.3187 6.23124L13.6187 9.18129C13.8686 9.32494 14.0937 9.49367 14.2937 9.70002L19.0562 4.91874C18.6874 4.54373 18.2874 4.20623 17.8687 3.89998L15.8999 6.61247C15.7124 6.47498 15.5187 6.34998 15.3187 6.23748V6.23124ZM9.18128 10.3812L6.23124 8.68123C6.34999 8.48122 6.48124 8.28747 6.61247 8.09997L3.9 6.13123C4.21249 5.70624 4.54999 5.30624 4.91874 4.94374L9.7 9.70629C9.49992 9.90623 9.32492 10.1312 9.18128 10.3812ZM5.56873 10.2874L8.85623 11.1624C8.78747 11.4312 8.74997 11.7125 8.74997 11.9999H2C2 11.4812 2.03749 10.9562 2.12499 10.45L5.42499 10.9625C5.46248 10.7375 5.51249 10.5062 5.56873 10.2874ZM17.8812 14.9875L20.9186 16.5313C21.1562 16.0624 21.3561 15.5749 21.5187 15.0813L18.2812 14.0313C18.1749 14.3562 18.0374 14.6812 17.8812 14.9875ZM13.6312 14.8125L15.3063 17.7062C15.5062 17.5937 15.7 17.4687 15.8811 17.3312L17.8875 20.0811C17.4687 20.3936 17.0186 20.6687 16.5562 20.9063L15.0249 17.925C14.7124 18.0812 14.3999 18.2187 14.0624 18.325L15.1062 21.5125C14.6063 21.6687 14.0937 21.7936 13.5749 21.8749L13.0437 18.5124C13.2687 18.4812 13.4937 18.4312 13.7187 18.3688L12.8437 15.1374C13.1188 15.0624 13.3813 14.9563 13.6249 14.8125H13.6312ZM6.29373 15.3124L9.1874 13.625C9.04373 13.3874 8.93747 13.1249 8.86247 12.85L5.63124 13.725C5.56873 13.5 5.51874 13.275 5.48749 13.0499L2.12499 13.5812C2.20625 14.0999 2.33124 14.6124 2.49375 15.1125L5.68123 14.0687C5.78748 14.3999 5.91873 14.7187 6.07498 15.0312L3.09999 16.5625C3.33749 17.0249 3.61249 17.475 3.91874 17.8936L6.66874 15.8874C6.53123 15.7 6.40624 15.5125 6.29373 15.3124ZM8.92498 21.5187C8.42497 21.3561 7.93748 21.1562 7.47497 20.9186L9.01247 17.8875C9.32492 18.0437 9.64371 18.1749 9.96877 18.2813L8.92498 21.5187ZM8.68123 17.7687L10.3812 14.8188C10.1312 14.675 9.90621 14.5062 9.70627 14.3061L4.94374 19.0874C5.31249 19.45 5.71248 19.7937 6.13124 20.0999L8.09998 17.3937C8.28748 17.525 8.48122 17.65 8.68123 17.7687ZM14.8187 13.6187L17.7624 15.3187C17.6499 15.525 17.525 15.7187 17.3874 15.9062L20.0937 17.8687C19.7874 18.2937 19.45 18.6937 19.0811 19.0625L14.3 14.2938C14.4999 14.0937 14.6749 13.8687 14.8187 13.6187ZM11.1624 15.1437L10.2874 18.4312C10.5124 18.4937 10.7375 18.5375 10.9687 18.575L10.4561 21.8811C10.9625 21.9624 11.4812 22 11.9999 22H12.0062V15.25H11.9999C11.7188 15.25 11.4375 15.2125 11.1624 15.1437ZM15.1437 12.8375C15.2125 12.5687 15.25 12.2875 15.25 11.9999H22C22 12.5187 21.9624 13.0437 21.8749 13.55L18.575 13.0374C18.5375 13.2624 18.4875 13.4937 18.4312 13.7125L15.1437 12.8375Z" fill="white"/>
</svg>

<svg xmlns="http://www.w3.org/2000/svg" width="24" height="24" fill="none" viewBox="0 0 24 24">
    <path fill="#fff" d="m13.031 5.425.513-3.306A10 10 0 0 0 12 2h-.006v6.75H12c.287 0 .562.037.838.106l.874-3.287a6 6 0 0 0-.68-.144m-2.656 3.762L8.687 6.294a6 6 0 0 0-.568.375l-2.007-2.75a9.4 9.4 0 0 1 1.332-.825l1.531 2.981c.312-.156.625-.294.956-.4L8.894 2.487q.748-.24 1.525-.362l.537 3.362q-.337.05-.675.144l.875 3.231a3 3 0 0 0-.781.325M3.08 7.47l3.04 1.542a7 7 0 0 0-.4.957l-3.24-1.05q.244-.749.6-1.45m14.625 1.218-2.893 1.688q.214.364.324.775l3.232-.875q.095.337.143.675l3.363-.531a10 10 0 0 0-.369-1.532L18.32 9.931a6 6 0 0 0-.394-.962L20.9 7.437a10 10 0 0 0-.819-1.33l-2.75 2.005c.138.188.263.375.375.575m-2.631-6.206c.5.163.987.363 1.45.6l-1.544 3.031a6.6 6.6 0 0 0-.95-.393zm.244 3.75-1.7 2.95c.25.144.475.313.675.519l4.762-4.781A10 10 0 0 0 17.87 3.9L15.9 6.612a6 6 0 0 0-.58-.375zm-6.138 4.15-2.95-1.7c.119-.2.25-.394.381-.581L3.9 6.131a10 10 0 0 1 1.019-1.187L9.7 9.706q-.302.3-.519.675m-3.612-.094 3.287.875A3.4 3.4 0 0 0 8.75 12H2c0-.519.037-1.044.125-1.55l3.3.513c.037-.225.087-.457.144-.676m12.312 4.7 3.038 1.544c.237-.469.437-.956.6-1.45l-3.238-1.05a7 7 0 0 1-.4.957m-4.25-.175 1.675 2.894q.302-.168.575-.375l2.006 2.75a9.5 9.5 0 0 1-1.33.825l-1.532-2.981a6.5 6.5 0 0 1-.963.4l1.044 3.188a11 11 0 0 1-1.531.362l-.531-3.363q.338-.047.675-.143l-.875-3.232a3.2 3.2 0 0 0 .78-.325zm-7.337.5 2.893-1.687a3 3 0 0 1-.325-.775l-3.23.875a5 5 0 0 1-.145-.675l-3.362.531q.123.78.369 1.532l3.187-1.044q.16.495.394.962L3.1 16.562c.237.463.512.913.819 1.332l2.75-2.007a6 6 0 0 1-.375-.575m2.631 6.207a10 10 0 0 1-1.45-.6l1.537-3.032q.47.235.957.394zm-.244-3.75 1.7-2.95a3.2 3.2 0 0 1-.675-.513l-4.762 4.781c.368.363.768.707 1.187 1.013L8.1 17.394q.28.197.581.375m6.138-4.15 2.943 1.7q-.168.308-.375.587l2.707 1.963a10 10 0 0 1-1.013 1.194l-4.781-4.77q.302-.3.519-.674m-3.657 1.525-.875 3.287c.225.063.45.107.682.144l-.513 3.306A10 10 0 0 0 12 22h.006v-6.75H12q-.423-.001-.838-.106m3.982-2.306q.105-.406.106-.838H22a9 9 0 0 1-.125 1.55l-3.3-.513a8 8 0 0 1-.144.675z"/>
</svg>
